public/assets/images/clients.svg

<svg width="65" height="64" viewBox="0 0 65 64" fill="none" xmlns="http://www.w3.org/2000/svg">
<g clip-path="url(#clip0_46_182)">
<mask id="mask0_46_182" style="mask-type:luminance" maskUnits="userSpaceOnUse" x="0" y="0" width="65" height="64">
<path d="M64.5 0H0.5V64H64.5V0Z" fill="white"/>
</mask>
<g mask="url(#mask0_46_182)">
<path d="M32.5 48C24.716 48 18.5373 42.56 18.2787 42.328L20.0547 40.3387C20.1107 40.3893 25.7533 45.3333 32.5 45.3333C39.2467 45.3333 44.8893 40.3893 44.9453 40.3387L46.7213 42.328C46.4627 42.56 40.284 48 32.5 48ZM64.5 32C64.5 14.3547 50.1453 0 32.5 0C14.8547 0 0.5 14.3547 0.5 32C0.5 49.6453 14.8547 64 32.5 64C50.1453 64 64.5 49.6453 64.5 32ZM61.8333 32C61.8333 48.1733 48.6733 61.3333 32.5 61.3333C16.3267 61.3333 3.16667 48.1733 3.16667 32C3.16667 15.8267 16.3267 2.66667 32.5 2.66667C48.6733 2.66667 61.8333 15.8267 61.8333 32ZM20.5 18.6667C16.684 18.6667 13.8333 24.296 13.8333 29.3333H16.5C16.5 25.52 18.5933 21.3333 20.5 21.3333C22.4067 21.3333 24.5 25.52 24.5 29.3333H27.1667C27.1667 24.296 24.316 18.6667 20.5 18.6667ZM44.5 18.6667C40.684 18.6667 37.8333 24.296 37.8333 29.3333H40.5C40.5 25.52 42.5933 21.3333 44.5 21.3333C46.4067 21.3333 48.5 25.52 48.5 29.3333H51.1667C51.1667 24.296 48.316 18.6667 44.5 18.6667Z" fill="white"/>
</g>
</g>
<defs>
<clipPath id="clip0_46_182">
<rect width="65" height="64" fill="white"/>
</clipPath>
</defs>
</svg>

<svg xmlns="http://www.w3.org/2000/svg" width="65" height="64" fill="none"><g clip-path="url(#a)"><mask id="b" width="65" height="64" x="0" y="0" maskUnits="userSpaceOnUse" style="mask-type:luminance"><path fill="#fff" d="M64.5 0H.5v64h64z"/></mask><g mask="url(#b)"><path fill="#fff" d="M32.5 48c-7.784 0-13.963-5.44-14.221-5.672l1.776-1.99c.056.051 5.698 4.995 12.445 4.995s12.39-4.944 12.445-4.994l1.776 1.989C46.463 42.56 40.284 48 32.5 48m32-16c0-17.645-14.355-32-32-32S.5 14.355.5 32s14.355 32 32 32 32-14.355 32-32m-2.667 0c0 16.173-13.16 29.333-29.333 29.333S3.167 48.173 3.167 32 16.327 2.667 32.5 2.667 61.833 15.827 61.833 32M20.5 18.667c-3.816 0-6.667 5.629-6.667 10.666H16.5c0-3.813 2.093-8 4-8s4 4.187 4 8h2.667c0-5.037-2.851-10.666-6.667-10.666m24 0c-3.816 0-6.667 5.629-6.667 10.666H40.5c0-3.813 2.093-8 4-8s4 4.187 4 8h2.667c0-5.037-2.851-10.666-6.667-10.666"/></g></g><defs><clipPath id="a"><path fill="#fff" d="M0 0h65v64H0z"/></clipPath></defs></svg>
